dist/assets/img/svg/details.svg

<svg width="50" height="50" viewBox="0 0 20 20" fill="none" xmlns="http://www.w3.org/2000/svg">
<g clip-path="url(#clip0)">
<path d="M12.1431 4.30484V0.714097C12.1432 0.31959 12.4631 -0.000125522 12.8576 3.69697e-08C13.0599 4.189e-05 13.2527 0.0859243 13.3881 0.236219L19.8167 7.37915C20.0518 7.64099 20.0612 8.03499 19.8388 8.30775L13.4102 16.1649C13.1604 16.4703 12.7104 16.5153 12.4051 16.2655C12.2397 16.1302 12.1435 15.9279 12.1431 15.7142V12.1549C6.50013 12.3385 2.97869 14.7506 1.3915 19.5121C1.29415 19.8034 1.02147 19.9999 0.714357 20C0.675854 20.0001 0.637348 19.997 0.599346 19.9907C0.253807 19.9343 5.14984e-05 19.6358 5.14984e-05 19.2857C9.34601e-05 10.8742 5.06369 4.69482 12.1431 4.30484ZM12.8574 10.7142C13.2519 10.7142 13.5717 11.034 13.5717 11.4285V13.7142L18.3453 7.87913L13.5716 2.57551V4.99981C13.5716 5.39431 13.2518 5.71411 12.8573 5.71411C7.24298 5.71411 3.04152 9.59916 1.80292 15.5271C4.10228 12.3299 7.80444 10.7142 12.8574 10.7142Z" fill="black"/>
</g>
<defs>
<clipPath id="clip0">
<rect width="20" height="20" fill="white" transform="matrix(-1 0 0 1 20 0)"/>
</clipPath>
</defs>
</svg>

<svg width="50" height="50" viewBox="0 0 20 20" fill="none" xmlns="http://www.w3.org/2000/svg"><g clip-path="url(#clip0)"><path d="M12.143 4.305V.715a.714.714 0 011.245-.479l6.429 7.143a.714.714 0 01.022.929l-6.429 7.857a.714.714 0 01-1.267-.45v-3.56C6.5 12.339 2.98 14.75 1.391 19.512a.714.714 0 01-1.39-.226C0 10.874 5.063 4.695 12.142 4.305zm.714 6.41c.395 0 .715.319.715.713v2.286l4.773-5.835-4.773-5.303V5c0 .394-.32.714-.715.714-5.614 0-9.815 3.885-11.054 9.813 2.3-3.197 6.001-4.813 11.054-4.813z" fill="#000"/></g><defs><clipPath id="clip0"><path fill="#fff" transform="matrix(-1 0 0 1 20 0)" d="M0 0h20v20H0z"/></clipPath></defs></svg>
